X:1
T:Teaming Up the Cariboo Road
M:4/4
L:1/8
K:C
 AA GG E G2 G| AA GG E G3| CC CC EE G2| D6 z D| FE DC B,2 DE| FE DC B,4|\
 GG GG AA G2| E6 z2| AA GG E G3| AA GG E G3| CC CC DD G2| D6 D2| FF ED B,2D-E|\
 FE DC B,4| GG GG FE D2| C6 GG| G2 G2 A3 G| G2 F4 F2| F2 F2 G3 D| E6 EF|\
 G2 G2 A2 G2| G2 F6| G2 G2 GG GG| EE D2 C4|
